X:141
T:Reel 141
M:4/4
K:Dmaj
L:1/8
d2dB AFAB|d2dB gfec|d2dB ADFA|gfed cABc|d2dB AFAB|d2dB gfec|d2dB ADFA|gfed cdef|d2ad fdad|d2ad cdec|d2ad fdad|cBAB cdeg|faaf dfaf|gfed cdeg| (3fga fd ec|BABc dBAG|
